X:1
T: The Hereford Lassie
C:Bruce Shawyer
R:Reel
Q:232
K:G
M:4/4
L:1/16
|:D4|"G"G4B2d2 "D7"c4F4|"G"G4d2g2d4d4|"C"c2B2A4 "G"B2A2G4|"D7"A4D2F2 "G"G4G4|
"G"G4B2d2 "D7"c4F4|"G"G4d2g2d4d4|"C"c2B2A4 "G"B2A2G4|"D7"A4D2F2 "G"G4G4|
"Em"g2f2e4 "D"f2e2d4|"C"e2d2c4 "G"d4c4|"Am"c2B2A4 "G"B2A2G4| "D7"A4D2F2 "G"G4G4|
"Em"g2f2e4 "D"f2e2d4|"C"e2d2c4 "G"d4c4|"Am"c2B2A4 "G"B2A2G4|"D7"A4D2F2 "G"G4:|
